X: 628
T: Jerry Hayes
C: anon.
O: Ireland
B: Francis O'Neill: "The Dance Music of Ireland" (1907) no. 628
R: Reel
Z: Transcribed by Frank Nordberg - http://www.musicaviva.com
F: http://www.musicaviva.com/abc/tunes/ireland/oneill-1001/oneill-1001-062
8.abc
M: C|
L: 1/8
K: D
A2|d2(fd) ceAc|dAfd egce|d2(fd) ceAg|fdec d2:|(AG)|FDAF dABG|FDAF EcAG|
FDAF dABG|FDEC A2(AG)|FDAD dABG|FDAD EcAG|FDAF dAAg|fdec d2|]
W:
W:
W: From Musica Viva - http://www.musicaviva.com
W: the Internet center for free sheet music downloads.


